images/icon-pinterest.svg

<svg width="40" height="40" viewBox="0 0 40 40" fill="none" xmlns="http://www.w3.org/2000/svg">
<path d="M39.8907 11.7601C39.797 9.63478 39.4533 8.17362 38.961 6.9075C38.4531 5.56354 37.6717 4.3603 36.6479 3.36004C35.6476 2.34421 34.4365 1.55487 33.1081 1.0549C31.8346 0.562551 30.3811 0.218854 28.2557 0.125147C26.1145 0.0235032 25.4347 0 20.004 0C14.5732 0 13.8934 0.0235032 11.7601 0.117211C9.63478 0.210918 8.17362 0.55492 6.9078 1.04696C5.56354 1.55487 4.3603 2.33628 3.36004 3.36004C2.34421 4.3603 1.55518 5.57148 1.0549 6.89987C0.562551 8.17362 0.218854 9.62685 0.125147 11.7522C0.0235032 13.8934 0 14.5732 0 20.004C0 25.4347 0.0235032 26.1145 0.117211 28.2478C0.210918 30.3731 0.55492 31.8343 1.04727 33.1004C1.55518 34.4444 2.34421 35.6476 3.36004 36.6479C4.3603 37.6637 5.57148 38.4531 6.89987 38.953C8.17362 39.4454 9.62685 39.7891 11.7525 39.8828C13.8855 39.9768 14.5656 40 19.9963 40C25.4271 40 26.1069 39.9768 28.2402 39.8828C30.3655 39.7891 31.8267 39.4454 33.0925 38.953C35.7807 37.9137 37.9061 35.7883 38.9454 33.1004C39.4375 31.8267 39.7814 30.3731 39.8752 28.2478C39.9689 26.1145 39.9924 25.4347 39.9924 20.004C39.9924 14.5732 39.9844 13.8934 39.8907 11.7601ZM36.2886 28.0915C36.2026 30.045 35.8744 31.0999 35.6009 31.8032C34.9288 33.5458 33.5458 34.9288 31.8032 35.6009C31.0999 35.8744 30.0374 36.2026 28.0915 36.2883C25.9817 36.3823 25.349 36.4055 20.0119 36.4055C14.6748 36.4055 14.0342 36.3823 11.932 36.2883C9.97848 36.2026 8.92358 35.8744 8.22032 35.6009C7.35314 35.2804 6.5638 34.7725 5.92311 34.1083C5.25892 33.4597 4.751 32.6783 4.43051 31.8111C4.15701 31.1079 3.82888 30.045 3.74311 28.0994C3.6491 25.9897 3.6259 25.3566 3.6259 20.0195C3.6259 14.6825 3.6491 14.0418 3.74311 11.9399C3.82888 9.98642 4.15701 8.93152 4.43051 8.22826C4.751 7.36077 5.25892 6.57174 5.93105 5.93074C6.57937 5.26655 7.36077 4.75863 8.22826 4.43844C8.93152 4.16495 9.99435 3.83682 11.9399 3.75074C14.0497 3.65704 14.6828 3.63353 20.0195 3.63353C25.3645 3.63353 25.9973 3.65704 28.0994 3.75074C30.053 3.83682 31.1079 4.16495 31.8111 4.43844C32.6783 4.75863 33.4676 5.26655 34.1083 5.93074C34.7725 6.57937 35.2804 7.36077 35.6009 8.22826C35.8744 8.93152 36.2026 9.99405 36.2886 11.9399C36.3823 14.0497 36.4058 14.6825 36.4058 20.0195C36.4058 25.3566 36.3823 25.9817 36.2886 28.0915Z" fill="#CCCCCC"/>
<path d="M13.884 22.1943C14.2051 22.3264 14.4998 22.1992 14.5896 21.844C14.6599 21.5932 14.8115 20.9726 14.8827 20.7121C14.9725 20.3569 14.94 20.2346 14.6791 19.9217C14.1108 19.254 13.747 18.3872 13.747 17.1558C13.747 13.5961 16.4127 10.4047 20.6884 10.4047C24.4768 10.4047 26.5559 12.7199 26.5559 15.8118C26.5559 19.8745 24.7605 23.3021 22.085 23.3021C20.6084 23.3021 19.5088 22.0853 19.8604 20.5882C20.286 18.8041 21.1055 16.8721 21.1055 15.585C21.1055 14.4288 20.4896 13.4677 19.2059 13.4677C17.6955 13.4677 16.483 15.0262 16.483 17.1183C16.483 18.4493 16.9329 19.3486 16.9329 19.3486C16.9329 19.3486 15.3896 25.8876 15.1193 27.0329C14.5798 29.3103 15.0392 32.103 15.0769 32.3879C15.101 32.5538 15.318 32.5964 15.4139 32.4677C15.5509 32.2884 17.35 30.0727 17.9609 27.857C18.1317 27.2267 18.9512 23.9784 18.9512 23.9784C19.4385 24.9167 20.8729 25.736 22.3977 25.736C26.9306 25.736 30.0036 21.6066 30.0036 16.0772C30.0036 11.8966 26.4615 8 21.0765 8C14.3713 8 11 12.8008 11 16.8055C11 19.2345 11.919 21.3896 13.884 22.1943Z" fill="#CCCCCC"/>
</svg>

<svg width="40" height="40" fill="none" xmlns="http://www.w3.org/2000/svg"><path d="M39.89 11.76c-.093-2.125-.437-3.586-.929-4.853a9.76 9.76 0 00-2.313-3.547 9.844 9.844 0 00-3.54-2.305c-1.273-.492-2.727-.836-4.852-.93C26.114.024 25.435 0 20.004 0c-5.43 0-6.11.024-8.244.117-2.125.094-3.586.438-4.852.93A9.76 9.76 0 003.36 3.36 9.848 9.848 0 001.055 6.9C.563 8.174.219 9.627.125 11.752.024 13.893 0 14.573 0 20.004c0 5.43.024 6.11.117 8.244.094 2.125.438 3.586.93 4.852a9.864 9.864 0 002.313 3.548 9.843 9.843 0 003.54 2.305c1.274.492 2.727.836 4.852.93 2.133.094 2.814.117 8.244.117 5.431 0 6.11-.023 8.244-.117 2.126-.094 3.587-.438 4.853-.93a10.231 10.231 0 005.852-5.853c.492-1.273.836-2.727.93-4.852.094-2.134.117-2.813.117-8.244 0-5.43-.008-6.11-.101-8.244zm-3.6 16.332c-.086 1.953-.415 3.008-.688 3.711a6.635 6.635 0 01-3.798 3.798c-.703.273-1.766.602-3.712.687-2.11.094-2.742.118-8.08.118-5.336 0-5.977-.024-8.079-.118-1.954-.085-3.008-.414-3.712-.687a6.155 6.155 0 01-2.297-1.493 6.218 6.218 0 01-1.492-2.297c-.274-.703-.602-1.766-.688-3.712-.094-2.11-.117-2.742-.117-8.08 0-5.336.023-5.977.117-8.08.086-1.953.414-3.007.688-3.71a6.08 6.08 0 011.5-2.298 6.21 6.21 0 012.297-1.493c.704-.273 1.766-.601 3.712-.687 2.11-.094 2.743-.117 8.08-.117 5.345 0 5.977.023 8.08.117 1.953.086 3.008.414 3.711.687a6.15 6.15 0 012.297 1.493 6.217 6.217 0 011.493 2.297c.273.704.602 1.766.688 3.712.093 2.11.117 2.742.117 8.08 0 5.337-.024 5.962-.117 8.072z" fill="#CCC"/><path d="M13.884 22.194c.321.132.616.005.706-.35.07-.25.222-.871.293-1.132.09-.355.057-.477-.204-.79-.568-.668-.932-1.535-.932-2.766 0-3.56 2.666-6.751 6.941-6.751 3.789 0 5.868 2.315 5.868 5.407 0 4.063-1.796 7.49-4.471 7.49-1.477 0-2.576-1.217-2.225-2.714.426-1.784 1.245-3.716 1.245-5.003 0-1.156-.615-2.117-1.9-2.117-1.51 0-2.722 1.558-2.722 3.65 0 1.331.45 2.23.45 2.23l-1.814 7.685c-.54 2.277-.08 5.07-.042 5.355.024.166.241.208.337.08.137-.18 1.936-2.395 2.547-4.611.17-.63.99-3.879.99-3.879.488.939 1.922 1.758 3.447 1.758 4.533 0 7.606-4.13 7.606-9.659 0-4.18-3.543-8.077-8.928-8.077C14.371 8 11 12.8 11 16.805c0 2.43.919 4.585 2.884 5.39z" fill="#CCC"/></svg>
